X: 5045
T: Brian O'Lynn
R: jig
M: 6/8
K: Adorian
|:~c3 A2G|~E3 cde|dcA A2G|B/c/d e fed|
cdc A2G|~E3 cde|dcA AGE|GED D3:|
|:~g3 ged|cAB c2d|e2a age|ed^c def|
[1 ~g3 ged|cAB cde|fed cAG|EAA A2f:|
[2 gba ged|cAB cde|fed cAG|EAA A3||

